-- first 8 bars

d1  $ stack [
        arp "down" $
            n "<c6'maj d6 c6'maj d6 [c6 d6 e6] [f6 e6 d6] [e6 d6 c6] d6>" 
        , arp "up" $
            n "<[c5'maj] [b4,f,g]>"
    ] # s "superpiano"
